; HEADER_BLOCK_START
; generated by OrcaSlicer 2.2.0 on 2025-01-12 at 17:59:19
; total layer number: 192
; filament_density: 1.24
; filament_diameter: 1.75
; max_z_height: 48.00
; HEADER_BLOCK_END

; THUMBNAIL_BLOCK_START

;
; THUMBNAIL_BLOCK_END

; THUMBNAIL_BLOCK_START

;
; THUMBNAIL_BLOCK_END

; external perimeters extrusion width = 0.50mm
; perimeters extrusion width = 0.50mm
; infill extrusion width = 0.50mm
; solid infill extrusion width = 0.50mm
; top infill extrusion width = 0.50mm
; first layer extrusion width = 0.50mm

; external perimeters extrusion width = 0.50mm
; perimeters extrusion width = 0.50mm
; infill extrusion width = 0.50mm
; solid infill extrusion width = 0.50mm
; top infill extrusion width = 0.50mm
; first layer extrusion width = 0.50mm

; EXECUTABLE_BLOCK_START
EXCLUDE_OBJECT_DEFINE NAME=3DBenchy.stl_id_0_copy_0 CENTER=117.5,110 POLYGON=[[92.0869,120.422],[92.0869,120.364],[92.0876,120.337],[92.0898,120.278],[92.0926,120.234],[92.0983,120.176],[92.0997,120.162],[92.1046,120.118],[92.1152,120.046],[92.1258,119.989],[92.1364,119.937],[92.1548,119.862],[92.1626,119.832],[92.1796,119.775],[92.1881,119.749],[92.1972,119.72],[92.205,119.696],[92.2262,119.638],[92.2496,119.58],[92.2708,119.53],[92.2955,119.477],[92.3012,119.466],[92.3217,119.425],[92.3281,119.413],[92.3556,119.362],[92.3592,119.355],[92.3783,119.322],[92.3995,119.287],[92.408,119.273],[92.4469,119.213],[92.4638,119.188],[92.4808,119.164],[92.4978,119.14],[109.551,96.5745],[109.7,96.3794],[109.849,96.1842],[110.001,95.9904],[110.213,95.7232],[110.354,95.5485],[110.508,95.3569],[110.665,95.166],[110.824,94.9765],[110.982,94.7884],[111.09,94.6618],[111.143,94.601],[111.267,94.4567],[111.304,94.4143],[111.467,94.2276],[111.573,94.1067],[111.629,94.0438],[111.737,93.9236],[111.909,93.7327],[111.982,93.6528],[111.997,93.6365],[112.089,93.5361],[112.191,93.4251],[112.29,93.3197],[112.37,93.2341],[112.415,93.1861],[112.49,93.1069],[112.571,93.0213],[112.632,92.9577],[112.73,92.8558],[112.863,92.718],[112.99,92.5886],[113.072,92.5044],[113.169,92.4082],[113.354,92.223],[113.607,91.9727],[113.92,91.6707],[113.978,91.6156],[114.237,91.3709],[114.316,91.2981],[114.557,91.0753],[114.88,90.7819],[115.129,90.5606],[115.192,90.5054],[115.274,90.4326],[115.405,90.3187],[115.496,90.2403],[115.607,90.1448],[115.674,90.0882],[115.812,89.9708],[115.912,89.8867],[116.561,89.4144],[116.569,89.4094],[116.947,89.1817],[117.042,89.1244],[117.235,89.0092],[117.362,88.9349],[117.43,88.8953],[117.568,88.8154],[117.821,88.6712],[117.98,88.5821],[118.215,88.4541],[118.413,88.3466],[118.611,88.242],[118.817,88.1345],[119.028,88.0263],[119.211,87.9344],[119.453,87.8149],[119.615,87.7364],[119.667,87.7116],[119.828,87.6353],[120.022,87.5448],[120.236,87.4465],[120.442,87.3538],[120.638,87.2676],[120.747,87.2202],[120.846,87.1778],[120.856,87.1735],[121.063,87.0851],[121.271,86.9982],[121.327,86.9755],[121.536,86.8907],[121.746,86.808],[121.955,86.7259],[122.377,86.5675],[122.587,86.4912],[122.799,86.4155],[123.011,86.342],[123.223,86.2699],[123.436,86.1984],[123.649,86.1298],[123.862,86.062],[124.076,85.9962],[124.291,85.9311],[124.506,85.8682],[124.721,85.8067],[124.938,85.7473],[125.154,85.6879],[125.371,85.6306],[125.589,85.5755],[125.807,85.5217],[126.026,85.4694],[126.244,85.4178],[126.465,85.3683],[126.684,85.3202],[126.906,85.2742],[127.126,85.229],[127.348,85.1851],[127.57,85.1427],[127.793,85.1024],[128.016,85.0635],[128.238,85.026],[128.463,84.99],[128.687,84.9553],[128.912,84.9221],[129.137,84.891],[129.363,84.8606],[129.589,84.8323],[129.815,84.8054],[130.043,84.78],[130.271,84.7559],[130.498,84.7333],[130.727,84.7128],[131.185,84.676],[131.415,84.6598],[131.645,84.6456],[131.876,84.6329],[132.108,84.6216],[132.263,84.6152],[132.492,84.606],[132.723,84.599],[132.953,84.594],[133.183,84.5905],[133.413,84.5876],[133.643,84.5869],[133.873,84.5883],[134.103,84.5905],[134.334,84.5947],[134.564,84.6004],[134.795,84.6074],[135.025,84.6159],[135.257,84.6265],[135.487,84.6378],[135.718,84.652],[135.949,84.6668],[136.179,84.6824],[136.411,84.7015],[136.641,84.7213],[136.872,84.7418],[137.103,84.7644],[137.334,84.7892],[137.565,84.8153],[137.796,84.8429],[138.028,84.8719],[138.258,84.903],[138.489,84.9348],[138.721,84.9681],[138.951,85.0034],[139.182,85.0409],[139.414,85.0798],[139.644,85.1194],[139.875,85.1611],[140.107,85.2042],[140.337,85.2495],[140.389,85.2608],[140.45,85.2749],[140.51,85.2905],[140.569,85.3075],[140.628,85.3259],[140.686,85.3457],[140.802,85.3909],[140.843,85.4086],[140.899,85.4341],[140.954,85.4609],[141.01,85.4892],[141.063,85.5189],[141.118,85.5514],[141.169,85.5818],[141.22,85.6158],[141.273,85.6518],[141.321,85.6872],[141.369,85.7247],[141.418,85.7629],[141.465,85.8032],[141.516,85.8498],[141.56,85.8915],[141.604,85.9347],[141.646,85.9785],[141.687,86.0238],[141.726,86.0697],[141.765,86.1171],[141.802,86.1659],[141.838,86.2147],[141.872,86.2628],[141.908,86.3165],[141.939,86.366],[141.972,86.4219],[141.999,86.4707],[142.028,86.5251],[142.055,86.5803],[142.082,86.6361],[142.106,86.692],[142.129,86.7486],[142.151,86.8058],[142.171,86.8645],[142.19,86.9225],[142.207,86.9819],[142.223,87.042],[142.238,87.1021],[142.251,87.1629],[142.291,87.3687],[142.334,87.5999],[142.376,87.8311],[142.417,88.0617],[142.456,88.2929],[142.492,88.5248],[142.528,88.756],[142.563,88.9873],[142.595,89.2185],[142.626,89.4504],[142.655,89.6816],[142.683,89.9136],[142.734,90.3774],[142.757,90.6094],[142.779,90.842],[142.798,91.0746],[142.816,91.3066],[142.833,91.5399],[142.848,91.7726],[142.861,92.0052],[142.871,92.177],[142.881,92.4097],[142.89,92.6423],[142.898,92.8749],[142.904,93.1069],[142.909,93.3395],[142.912,93.5714],[142.913,94.0339],[142.907,94.4949],[142.902,94.7247],[142.895,94.9552],[142.887,95.1843],[142.877,95.4134],[142.866,95.6426],[142.853,95.8717],[142.839,96.1008],[142.823,96.3292],[142.805,96.5575],[142.786,96.7859],[142.765,97.0136],[142.742,97.2413],[142.718,97.469],[142.693,97.696],[142.666,97.9237],[142.637,98.1507],[142.607,98.3776],[142.575,98.6046],[142.542,98.8316],[142.506,99.0579],[142.47,99.2849],[142.393,99.736],[142.351,99.9616],[142.308,100.187],[142.264,100.412],[142.217,100.637],[142.17,100.861],[142.12,101.086],[142.069,101.309],[142.017,101.533],[141.963,101.757],[141.907,101.98],[141.85,102.202],[141.79,102.424],[141.73,102.647],[141.668,102.868],[141.604,103.09],[141.514,103.39],[141.448,103.605],[141.381,103.82],[141.311,104.033],[141.241,104.247],[141.169,104.459],[141.095,104.671],[141.02,104.882],[140.944,105.092],[140.865,105.302],[140.786,105.512],[140.705,105.721],[140.623,105.929],[140.539,106.136],[140.454,106.343],[140.416,106.433],[140.367,106.55],[140.279,106.755],[140.184,106.97],[140.133,107.087],[140.001,107.378],[139.906,107.582],[139.816,107.774],[139.714,107.987],[139.627,108.164],[139.62,108.178],[139.52,108.379],[139.419,108.579],[139.305,108.8],[139.206,108.986],[139.194,109.01],[139.081,109.22],[138.967,109.429],[138.852,109.636],[138.774,109.775],[138.735,109.844],[138.662,109.971],[138.549,110.166],[138.496,110.255],[138.434,110.36],[138.318,110.553],[138.092,110.929],[137.791,111.374],[137.784,111.381],[137.62,111.579],[137.59,111.615],[137.465,111.763],[137.41,111.828],[137.303,111.953],[137.251,112.014],[137.022,112.277],[136.726,112.611],[136.7,112.64],[136.441,112.926],[136.348,113.027],[136.111,113.283],[135.964,113.438],[135.812,113.599],[135.508,113.912],[135.237,114.186],[134.993,114.43],[134.779,114.64],[134.739,114.679],[134.579,114.833],[134.476,114.932],[134.39,115.013],[134.265,115.131],[134.199,115.193],[134.093,115.292],[133.962,115.413],[133.944,115.43],[133.827,115.536],[133.748,115.609],[133.651,115.696],[133.502,115.829],[133.32,115.992],[133.135,116.154],[133.124,116.163],[132.906,116.352],[132.719,116.512],[132.529,116.672],[132.388,116.789],[132.339,116.83],[132.2,116.945],[132.009,117.1],[131.956,117.143],[131.819,117.254],[131.57,117.452],[131.374,117.605],[131.239,117.709],[130.982,117.907],[108.384,134.984],[108.355,135.005],[108.314,135.035],[108.266,135.067],[108.239,135.085],[108.188,135.115],[108.178,135.122],[108.145,135.141],[108.135,135.146],[108.083,135.174],[108.034,135.199],[108.023,135.204],[107.97,135.229],[107.92,135.25],[107.862,135.274],[107.804,135.295],[107.759,135.31],[107.704,135.327],[107.684,135.332],[107.638,135.345],[107.579,135.36],[107.563,135.364],[107.522,135.372],[107.511,135.374],[107.454,135.385],[107.406,135.392],[107.396,135.393],[107.338,135.4],[107.289,135.405],[107.28,135.406],[107.222,135.41],[107.163,135.412],[107.134,135.413],[107.066,135.413],[107.015,135.412],[106.987,135.41],[106.957,135.408],[106.898,135.403],[106.84,135.396],[106.817,135.393],[106.783,135.388],[106.778,135.388],[106.72,135.378],[106.694,135.373],[106.667,135.368],[106.605,135.354],[106.548,135.339],[106.492,135.323],[106.451,135.31],[106.426,135.301],[106.375,135.284],[106.316,135.261],[106.265,135.24],[106.212,135.216],[106.159,135.19],[106.156,135.189],[106.107,135.164],[106.057,135.136],[106.006,135.106],[105.953,135.073],[105.905,135.04],[105.861,135.009],[105.856,135.006],[105.813,134.975],[105.779,134.948],[105.757,134.93],[105.697,134.878],[105.669,134.853],[105.648,134.833],[92.6632,121.849],[92.6222,121.803],[92.5854,121.761],[92.5515,121.72],[92.5416,121.707],[92.5126,121.67],[92.478,121.622],[92.4271,121.547],[92.3959,121.498],[92.3662,121.447],[92.3528,121.424],[92.3245,121.371],[92.2856,121.291],[92.2694,121.255],[92.2467,121.202],[92.2397,121.185],[92.2248,121.147],[92.205,121.093],[92.1902,121.049],[92.1697,120.982],[92.1612,120.952],[92.1548,120.929],[92.1336,120.838],[92.1272,120.806],[92.1223,120.782],[92.1124,120.724],[92.1039,120.666],[92.0968,120.598],[92.0933,120.559],[92.0898,120.513],[92.0876,120.454],[92.0869,120.434],[92.0869,120.422]]
M73 P0 R1
M106 S0
M106 P2 S0
;TYPE:Custom
SET_PIN PIN=LED VALUE=1.00
SET_FIRST_LAYER_Z_OFFSET FIRST_LAYER_TEMP=300
SKEW_PROFILE LOAD=CaliFlower
G90 ; use absolute coordinates
M83 ; extruder relative mode
M140 S100 ; set final bed temp
M104 S150 ; set temporary nozzle temp to prevent oozing during homing
M190 S100 ; wait for bed temp to stabilize
G28 ; home all axis
nozzle_wipe
G0 X125 Y107.5 Z15	
M400
smart_park
CARTOGRAPHER_TOUCH
smart_park
M104 S300 ; set final nozzle temp
M109 S300 ; wait for nozzle temp to stabilize
Line_Purge
G90
G21
M83 ; use relative distances for extrusion
; filament start gcode
SET_PRESSURE_ADVANCE ADVANCE=0; Override pressure advance value
M106 S0
M106 P2 S0
;LAYER_CHANGE
;Z:0.25
;HEIGHT:0.25
;BEFORE_LAYER_CHANGE
;0.25
G92 E0

;AFTER_LAYER_CHANGE
;0.25
;_SET_FAN_SPEED_CHANGING_LAYER
SET_VELOCITY_LIMIT ACCEL=1000000 ACCEL_TO_DECEL=1e+06
SET_VELOCITY_LIMIT SQUARE_CORNER_VELOCITY=750
; printing object 3DBenchy.stl id:0 copy 0
EXCLUDE_OBJECT_START NAME=3DBenchy.stl_id_0_copy_0
G1 X118.727 Y111.797 F42000
G1 Z.25
;TYPE:Outer wall
;WIDTH:0.5
G1 F43200
G1 X118.575 Y111.502 E.0154
G1 X118.504 Y111.073 E.02016
G1 X118.584 Y110.645 E.02024
G1 X118.743 Y110.352 E.01543
G1 X118.901 Y110.174 E.01105
G1 X119.261 Y109.934 E.02009
G1 X119.74 Y109.835 E.02269
G1 X120.016 Y109.862 E.01287
G1 X120.241 Y109.932 E.01093
G1 X120.604 Y110.161 E.01992
G1 X120.869 Y110.507 E.02023
G1 X120.98 Y110.819 E.01534
G1 X121.008 Y111.045 E.01056
G1 X120.995 Y111.272 E.01054
G1 X120.905 Y111.591 E.01538
G1 X120.664 Y111.953 E.0202
G1 X120.317 Y112.207 E.01994
G1 X120.094 Y112.292 E.01108
G1 X119.765 Y112.339 E.0154
G1 X119.342 Y112.268 E.0199
G1 X119.047 Y112.117 E.0154
G1 X118.873 Y111.97 E.01055
G1 X118.775 Y111.855 E.00702
G1 X116.31 Y115.537 F42000
G1 F43200
G1 X116.084 Y115.532 E.0105
G1 X115.863 Y115.456 E.01082
G1 X115.521 Y115.202 E.01979
G1 X112.548 Y112.197 E.19609
G1 X112.12 Y111.831 E.02614
G1 X111.917 Y111.52 E.01723
G1 X111.945 Y111.156 E.01692
G1 X112.177 Y110.778 E.0206
G1 X113.417 Y109.587 E.07975
G1 X114.098 Y109.112 E.03851
G1 X114.504 Y108.948 E.0203
G1 X114.936 Y108.875 E.02034
G1 X115.356 Y108.887 E.0195
G1 X115.957 Y109.03 E.02867
G1 X116.56 Y109.323 E.03111
G1 X117.065 Y109.69 E.02895
G1 X117.677 Y110.293 E.03984
G1 X118.067 Y110.816 E.03025
G1 X118.336 Y111.329 E.02689
G1 X118.494 Y111.833 E.02452
G1 X118.548 Y112.322 E.02283
G1 X118.524 Y112.698 E.01745
G1 X118.41 Y113.152 E.02172
G1 X118.207 Y113.562 E.02123
G1 X117.977 Y113.894 E.01875
G1 X117.662 Y114.264 E.02254
G1 X117.02 Y114.896 E.04179
G1 X116.6 Y115.383 E.02984
G1 X116.376 Y115.502 E.01176
G1 X121.948 Y108.551 F42000
G1 F43200
G1 X122.098 Y108.975 E.02088
G1 X122.226 Y109.662 E.03242
G1 X122.206 Y109.892 E.01071
G1 X122.116 Y110.096 E.01035
G1 X121.955 Y110.245 E.01013
G1 X121.751 Y110.339 E.01044
G1 X121.515 Y110.371 E.01103
G1 X121.283 Y110.325 E.01097
G1 X121.065 Y110.162 E.01265
G1 X120.931 Y109.962 E.01117
G1 X120.804 Y109.618 E.01704
G1 X120.579 Y108.766 E.04087
G1 X120.486 Y108.22 E.02566
G1 X120.44 Y108.137 E.00444
G1 X118.845 Y107.697 E.07673
G1 X118.483 Y107.488 E.01942
G1 X118.296 Y107.198 E.01598
G1 X118.29 Y106.894 E.01412
G1 X118.411 Y106.6 E.01476
G1 X118.624 Y106.39 E.01387
G1 X118.905 Y106.296 E.01373
G1 X119.327 Y106.319 E.01962
G1 X120.032 Y106.528 E.03411
G1 X119.837 Y105.981 E.02694
G1 X119.79 Y105.523 E.02133
G1 X119.832 Y105.272 E.01182
G1 X119.959 Y105.033 E.01253
G1 X120.14 Y104.897 E.01051
G1 X120.394 Y104.834 E.01213
G1 X120.778 Y104.902 E.01808
G1 X121.056 Y105.167 E.01783
G1 X121.177 Y105.495 E.01623
G1 X121.46 Y106.626 E.05408
G1 X121.526 Y106.787 E.00809
G1 X121.621 Y106.913 E.00731
G1 X121.806 Y107.018 E.00985
G1 X123.323 Y107.416 E.07276
G1 X123.615 Y107.616 E.01643
G1 X123.82 Y107.945 E.01799
G1 X123.825 Y108.247 E.01402
G1 X123.697 Y108.53 E.01443
G1 X123.466 Y108.751 E.01485
G1 X123.183 Y108.843 E.0138
G1 X122.787 Y108.791 E.01852
G1 X122.02 Y108.572 E.03702
G1 X127.274 Y107.05 F42000
;TYPE:Inner wall
G1 F43200
G1 X126.713 Y105.726 E.06668
G1 X125.201 Y102.569 E.16241
G1 X125.03 Y102.138 E.02149
G1 X125.424 Y102.093 E.01838
G1 X125.819 Y101.874 E.02096
G1 X126.015 Y101.706 E.01196
G1 X126.267 Y103.283 E.07411
G1 X126.396 Y103.769 E.0233
G1 X126.619 Y104.179 E.02165
G1 X126.97 Y104.509 E.0224
G1 X127.415 Y104.716 E.02275
G1 X127.955 Y104.727 E.02505
G1 X128.425 Y104.453 E.02523
G1 X128.865 Y103.967 E.03039
G1 X129.799 Y103.038 E.06114
G1 X129.661 Y104.407 E.0638
G1 X129.378 Y105.801 E.06601
G1 X128.962 Y107.148 E.06539
G1 X128.418 Y108.442 E.06512
G1 X127.786 Y109.612 E.06172
G1 X127.223 Y110.476 E.04784
G1 X126.625 Y111.265 E.04594
G1 X125.932 Y112.054 E.04868
G1 X125.245 Y112.733 E.04481
G1 X107.521 Y128.425 E1.09823
G1 X107.186 Y128.646 E.01861
G1 X107.022 Y128.706 E.0081
G1 X106.753 Y128.734 E.01255
G1 X106.575 Y128.708 E.00834
G1 X106.264 Y128.578 E.01564
G1 X105.968 Y128.347 E.01744
G1 X104.148 Y126.522 E.11956
G1 X105.186 Y126.575 E.04821
G1 X105.887 Y126.441 E.03309
G1 X106.427 Y126.205 E.02734
G1 X106.845 Y125.927 E.02331
G1 X107.214 Y125.595 E.02301
G1 X107.594 Y125.145 E.02732
G1 X107.865 Y124.672 E.02529
G1 X108.024 Y124.171 E.02441
G1 X108.06 Y123.657 E.02387
G1 X107.975 Y123.166 E.02314
G1 X107.765 Y122.67 E.02499
G1 X107.205 Y122.33 E.03041
G1 X106.588 Y122.35 E.02863
G1 X106.14 Y122.567 E.02312
G1 X105.866 Y122.828 E.01755
G1 X105.658 Y123.19 E.01936
G1 X105.63 Y123.722 E.0247
G1 X105.479 Y123.951 E.01274
G1 X105.243 Y124.118 E.01341
G1 X104.942 Y124.174 E.0142
G1 X104.695 Y124.115 E.0118
G1 X104.434 Y123.976 E.01371
G1 X104.092 Y123.708 E.02013
G1 X103.703 Y123.313 E.02577
G1 X103.42 Y122.924 E.02227
G1 X103.299 Y122.64 E.01434
G1 X103.288 Y122.329 E.01446
G1 X103.392 Y122.1 E.01169
G1 X103.481 Y122.001 E.00616
G1 X103.627 Y121.919 E.00775
G1 X104.404 Y121.699 E.03747
G1 X104.737 Y121.493 E.01819
G1 X105.046 Y121.108 E.02293
G1 X105.13 Y120.511 E.02793
G1 X105.016 Y120.106 E.01957
G1 X105.356 Y120.116 E.01577
G1 X105.71 Y119.97 E.01781
G1 X105.976 Y119.748 E.01605
G1 X106.424 Y119.182 E.03348
G1 X106.736 Y119.536 E.02187
G1 X108.714 Y121.489 E.12895
G1 X109.137 Y121.978 E.03
G1 X109.618 Y122.28 E.02637
G1 X110.245 Y122.221 E.02921
